X: 1
T: Shove the Pigs Foot a Little Further Into the Fire
C: trad. U.S.
O: arr. Andy Reiner
R: reel
S: https://www.patreon.com/posts/rustic-roots-27198819
Z: 2020 John Chambers <jc:trillian.mit.edu>
M: C|
L: 1/8
K: G
|:\
"G"vBcB(A G2)EF | "C"GAG(E "G"D2)B,C | "G"D(EG2) B3c | "D"B2A2- A2B2- |
"G"BcB(A G2)EF | "C"GAG(E "G"D2)B,C | "G"D(EG2) B3c | "D"A2 "G"G6 :|
|:\
"G"(vBd2e) ud3(vg | "C"e)dB(c "G"d2)dA | "G"B(cd2) g3g | "D"e2d4 (vB2 |
"G"vB)(d2e) ud3g | "C"e(dBc) "G"dDEG | "G"B3(c BA)GB | "D"A2 "G"G6 :|
%%text  A "pig's foot" is a clawhammer-type tool, named for the appearance of its tips.
